X: 1
T: Lady Mary Ramsay
C: Nathaniel Gow
M: C
L: 1/8
K: D
A \
| "D"D2 D>B A<F F>B | "D"A<F "G"B>G "D"A<F F<d \
| "D"D2 D>B "Bm"A<F F>A | "G"(3Bcd "D"(3AGF "Em"E2-"A7"E :|
g \
| "D(Bm)"f>e d>B "A7"e>c A>c | "G"d>c B<d "D"A<F D>g \
| "D(Bm)"f>e d>B "A7"e>c A>c | "G"(3dcB "D"(3AGF "Em"E2-"A7"E |]
g \
| "D(Bm)"f>e d>B "A7"e>c A>c | "G"d>c B<d "D"A<F D>c \
| "D"(3def "A"(3edc "Bm"(3dcB "D"(3AGF | "Em"G<e "D"F<d "A7"E2-E |]

%%sep 1 1 500

